X: 52
T:Ymdaith Gwirfoddolwyr Y Bermo
T:The March of the Barmouth Volunteers
M:C
L:1/8
Q:140
S:Mary Richards' (1787-1877) Collection
R:March
A:Wales
Z:brian_martin12345@yahoo.com
K:D
A2|d2d>dd2f>d|a2A>AA2B>c|dafd cgec|d2d>dd2f>g|!
a2a>aa2ga|b>b g>g e2f>g|afdf ed (3cdB|A2A>AA2:||!
cd|e2e>ee2 (3dfa|g>g f>f e2f>g|a>b (3agf g>a (3gfe|f>g (3edc A2B>c|!
d>f (3Bcd e>g (3cde|f>a (3def g>b (3efg|(3afd (3bag f2e2|d2d>dd2:||

